X: 516
T: Aaron's Key
R: jig
M: 6/8
K: Bminor
E|F2B Bcd|cAA ABc|d2B Bcd|edc BAG|
F2B Bcd|cAA ABc|dcd efg|fdB B2E|
F2B Bcd|cAA ABc|d2B Bcd|efg efg|
~f3 fed|cAA ABc|dcd efg|fdB B2c||
|:dAA def|eAA a2g|~f3 fed|cBc ABc|
BFB cAc|dB/c/d efg|fed cBA|1 B3 B2c:|2 B3 B2E||

